X: 10962
M: C|
L: 1/8
K: G
|:\
v(Bc)de (dB)Be | dBgB aBgB | (Bc)de (dB)gB | (Aa)ag (fe)dc :|
vdcBA G2(BA) | GBDB GBDB | dcBA G2(BG) | (FG)AB (ce)dc |


